src/lib/packages/icons/src/assets/filled/more-vertical-circle.svg

<svg xmlns="http://www.w3.org/2000/svg" width="24" height="24" fill="none"><path fill="currentColor" d="M12 2C6.477 2 2 6.477 2 12s4.477 10 10 10 10-4.477 10-10S17.523 2 12 2Zm.02 15.25c-.69 0-1.255-.56-1.255-1.25s.555-1.25 1.245-1.25h.01a1.25 1.25 0 0 1 0 2.5Zm0-4c-.69 0-1.255-.56-1.255-1.25s.555-1.25 1.245-1.25h.01a1.25 1.25 0 0 1 0 2.5Zm0-4c-.69 0-1.255-.56-1.255-1.25s.555-1.25 1.245-1.25h.01a1.25 1.25 0 0 1 0 2.5Z"/></svg>

<svg width="24" height="24" viewBox="0 0 24 24" fill="none" xmlns="http://www.w3.org/2000/svg">
<path d="M12 2C6.477 2 2 6.477 2 12C2 17.523 6.477 22 12 22C17.523 22 22 17.523 22 12C22 6.477 17.523 2 12 2ZM12.02 17.25C11.33 17.25 10.765 16.69 10.765 16C10.765 15.31 11.32 14.75 12.01 14.75H12.02C12.71 14.75 13.27 15.31 13.27 16C13.27 16.69 12.71 17.25 12.02 17.25ZM12.02 13.25C11.33 13.25 10.765 12.69 10.765 12C10.765 11.31 11.32 10.75 12.01 10.75H12.02C12.71 10.75 13.27 11.31 13.27 12C13.27 12.69 12.71 13.25 12.02 13.25ZM12.02 9.25C11.33 9.25 10.765 8.69 10.765 8C10.765 7.31 11.32 6.75 12.01 6.75H12.02C12.71 6.75 13.27 7.31 13.27 8C13.27 8.69 12.71 9.25 12.02 9.25Z" fill="currentColor"/>
</svg>
